X:14
T: Die wiedergefundene Schwester (Suedeli - Ballade)
N: Q2072M
O: Nordeuropa, Finnland (Schwedische Nationalitaet)
N: Finno-schwedische Fassung der Ballade.
N: Doppelter Refrain in Zeile zwei und vier.
R: Ballade, Entfuehrung, Adelige als Dienstmagd, Rueckkehr
M: 2/4
L: 1/16
K: D
D2 | D2E2=F2G2 | A2A2G2A2 | =c3_BA2^G2 | A2z2
A2A2 | A8 | d8 | =c3_BA3^G | A4z2
A2 | A2=c2c2_B2 | A4A2G2 | =F3EF3G | A4
G2=F2 | D8 | A8 | =F3ED2C2 | D4z2

@@@ Tune index: 1069
